X:1
T:Easter Bells
T:Easter Bells
T:Charles Hutchinson Gabriel
T:Charles Hutchinson Gabriel, 1892
T:Public Domain Courtesy of the Cyber Hymnal™
T:Public Domain Courtesy of the Cyber Hymnal™
C:Charles Hutchinson Gabriel
Z:Public Domain
Z:Courtesy of the Cyber Hymnal™
%%score ( 1 2 ) ( 3 4 )
L:1/8
Q:1/4=100
M:4/4
K:Eb
V:1 treble 
V:2 treble 
V:3 bass 
V:4 bass 
V:1
 ([EG][FA]) | [GB]2 ([EG][FA]) [GB]2 ([EG][FA]) | [GB]2 [Ge]2 [GB]2 (Bc) | [Ac]2 (Fc) [Ac]2 (Fc) | %4
w: 1.~Ring *|out, oh, * hap- py *|Eas- ter bells, Fill *|earth and * air with *|
w: 2.~Ring *|out, oh, * hap- py *|East- er bells, Your *|cheer- ful * voice of *|
w: 3.~Ring *|out, oh * hap- py *|Eas- ter bells, To *|all the * world your *|
 [Ac]2 (dc) [GB]2 [EG]2 | [DF]2 [DB]2 [Fd]2 [Ec]2 | [DB]6 [GB]2 | [FA]2 [Ac]2 [Ac]2 [DF]2 | %8
w: nois- y * swells, And|ma- ny tune- ful|lay; A-|far and near let|
w: joy im- * pels The|hu- man heart to|praise; Your|mer- ry rhyme of|
w: mu- sic * tells Of|fair- er things a-|bove; Our|songs of joy we|
 [EG]2 [GB]2 [GB]2 [EG]2 | [FA]2 [Ac]2 [Ac]2 [DF]2 | [EG]2 [GB]2 [GB]2 [EB]2 | %11
w: songs of cheer, In|car- ols sweet the|joy re- peat Of|
w: clang and chime, With|ho- ly fire our|souls in- spire, A|
w: will em- ploy, To|praise His name and|wide pro- claim The|
 [Ec]2 [Fc]2 [Fd]2 [Ad]2 | [Ge]6 z2 ||"^Refrain" e4 B4 | G6 (Bc) | d2 F2 A4 | c2 G2 G2 B2 | e4 B4 | %18
w: re- sur- rec- tion|day.|Ring, sweet|bells, oh, *|East- er bells,|Oh, hap- py bells,|then ring,|
w: sac- ri- fice to|raise.||||||
w: won- ders of His|love.||||||
 G6 [EB]2 | [Ec]2 [Fc]2 [Fd]2 [Ad]2 | [Ge]6 |] %21
w: sweet bells,|Ring out, oh, hap-|py|
w: |||
w: |||
V:2
 x2 | x8 | x6 G2 | x2 D2 x D2 x | x2 A2 x4 | x8 | x8 | x8 | x8 | x8 | x8 | x8 | x8 || %13
 (G2 E2) (G2 E2) | (E2 E2 E2) G2 | A4 F2 (Bc) | G6 B2 | (G2 E2) (G2 E2) | (E2 E2 E2) x2 | x8 | %20
 x6 |] %21
V:3
 [E,B,]2 | [E,E]2 [E,B,]2 [E,E]2 [E,B,]2 | [E,E]2 [E,B,]2 [E,E]2 [E,E]2 | %3
w: ~|~ ~ ~ ~|~ ~ ~ ~|
 [B,,D]2 [B,,B,]2 [B,,D]2 [B,,B,]2 | [B,,D]2 B,2 [E,B,]2 [E,B,]2 | %5
w: ~ ~ ~ ~|~ ~ ~ ~|
 [F,B,]2 [F,B,]2 [F,B,]2 [F,=A,]2 | [B,,B,]6 [B,,B,]2 | B,2 [B,D]2 [B,D]2 B,2 | %8
w: ~ ~ ~ ~|~ ~|~ ~ ~ ~|
 [E,B,]2 [E,E]2 [E,E]2 [E,B,]2 | [B,,B,]2 [B,,D]2 [B,,D]2 [B,,B,]2 | %10
w: ~ ~ ~ ~|~ ~ ~ ~|
 [E,B,]2 [E,E]2 [E,E]2 [E,G,]2 | A,2 [F,=A,]2 B,2 [B,,B,]2 | [E,B,]6 z2 || B,4 E4 | B,6 [E,E]2 | %15
w: ~ ~ ~ ~|~ ~ ~ ~|~|Ring, sweet|bells, sweet|
 (D2 D2) (D2 D2) | (E2 B,2 B,2) B,2 | B,4 E4 | B,6 [E,G,]2 | A,2 [F,=A,]2 B,2 [B,,B,]2 | [E,B,]6 |] %21
w: Eas- * ter *|bells, * * Oh,|ring, sweet|bells, Then|ring, sweet bells, sweet|Eas-|
V:4
 x2 | x8 | x8 | x8 | x2 (C,D,) x4 | x8 | x8 | B,2 x2 B,2 x2 | x8 | x8 | x8 | =A,2 B,2 x4 | x8 || %13
 E,2 G,2 B,2 G,2 | E,2 G,2 B,2 x2 | B,,4 B,,4 | E,6 B,2 | E,2 G,2 B,2 G,2 | E,2 G,2 B,2 x2 | %19
 =A,2 B,2 x4 | x6 |] %21

